brandFactory_export/2.Regular/Codigo_2Regular.svg

<?xml version="1.0" encoding="UTF-8"?>
<svg width="24px" height="24px" viewBox="0 0 24 24" version="1.1" xmlns="http://www.w3.org/2000/svg" xmlns:xlink="http://www.w3.org/1999/xlink">
    <title>2.Regular/Codigo_2Regular</title>
    <g id="Symbols" stroke="none" stroke-width="1" fill="none" fill-rule="evenodd">
        <g id="2.Regular/Codigo_2Regular" fill="#5CB615" fill-rule="nonzero">
            <path d="M21.8756303,19.3260504 C22.0268908,19.3260504 22.1478992,19.2084034 22.1478992,19.0638655 L22.1478992,8.21008403 L1.47563025,8.21008403 L1.47563025,19.0605042 C1.47563025,19.205042 1.6,19.3226891 1.74789916,19.3226891 L21.8756303,19.3226891 L21.8756303,19.3260504 Z M1.7512605,4.4487395 C1.6,4.4487395 1.4789916,4.56638655 1.4789916,4.71092437 L1.4789916,6.78823529 L22.1512605,6.78823529 L22.1512605,4.71092437 C22.1512605,4.56638655 22.0302521,4.4487395 21.8789916,4.4487395 L1.7512605,4.4487395 L1.7512605,4.4487395 Z M21.8756303,3.0302521 C22.8403361,3.0302521 23.6235294,3.78655462 23.6235294,4.71428571 L23.6235294,19.0638655 C23.6235294,19.9915966 22.8403361,20.7478992 21.8756303,20.7478992 L1.7512605,20.7478992 C0.786554622,20.7478992 0,19.9915966 0,19.0638655 L0,4.71428571 C0,3.78655462 0.783193277,3.0302521 1.7512605,3.0302521 L21.8756303,3.0302521 Z M4.98823529,6.17983193 C4.60840336,6.17983193 4.30588235,5.88403361 4.30588235,5.5210084 C4.30588235,5.15462185 4.61176471,4.86218487 4.98823529,4.86218487 C5.36806723,4.86218487 5.67058824,5.15798319 5.67058824,5.5210084 C5.67058824,5.88403361 5.36806723,6.17983193 4.98823529,6.17983193 Z M7.03865546,6.17983193 C6.65882353,6.17983193 6.35630252,5.88403361 6.35630252,5.5210084 C6.35630252,5.15462185 6.66218487,4.86218487 7.03865546,4.86218487 C7.41848739,4.86218487 7.7210084,5.15798319 7.7210084,5.5210084 C7.72436975,5.88403361 7.41848739,6.17983193 7.03865546,6.17983193 Z M2.93445378,6.17983193 C2.55462185,6.17983193 2.25210084,5.88403361 2.25210084,5.5210084 C2.25210084,5.15462185 2.55462185,4.86218487 2.93445378,4.86218487 C3.31428571,4.86218487 3.61680672,5.15798319 3.61680672,5.5210084 C3.62016807,5.88403361 3.31428571,6.17983193 2.93445378,6.17983193 L2.93445378,6.17983193 Z M8.25882353,10.9663866 C8.51428571,11.2386555 8.49411765,11.6554622 8.21176471,11.9042017 L5.96302521,13.8705882 L8.21848739,15.8773109 C8.49747899,16.1260504 8.51428571,16.5462185 8.25546218,16.8151261 C8.1210084,16.9563025 7.93613445,17.0268908 7.7512605,17.0268908 C7.58655462,17.0268908 7.41512605,16.9697479 7.28403361,16.8487395 L4.47731092,14.3512605 C4.33613445,14.2268908 4.25546218,14.0487395 4.25546218,13.8638655 C4.25546218,13.6756303 4.3394958,13.5008403 4.48067227,13.3764706 L7.28739496,10.9226891 C7.56638655,10.6739496 8.00336134,10.6941176 8.25882353,10.9663866 L8.25882353,10.9663866 Z M16.2319328,10.9193277 L19.0386555,13.3731092 C19.1798319,13.497479 19.2638655,13.6756303 19.2638655,13.8605042 C19.2638655,14.0487395 19.1831933,14.2235294 19.0420168,14.3512605 L16.2352941,16.8487395 C16.1008403,16.9663866 15.9327731,17.0235294 15.7680672,17.0235294 C15.5831933,17.0235294 15.3983193,16.9529412 15.2638655,16.8117647 C15.005042,16.5428571 15.0218487,16.1226891 15.3008403,15.8739496 L17.5563025,13.8672269 L15.307563,11.9008403 C15.0252101,11.6554622 15.005042,11.2352941 15.2605042,10.9630252 C15.512605,10.6941176 15.9495798,10.6739496 16.2319328,10.9193277 L16.2319328,10.9193277 Z M13.1798319,10.8352941 C13.5260504,10.9865546 13.6840336,11.3764706 13.5260504,11.712605 L11.2504202,16.6067227 C11.1361345,16.8521008 10.8840336,17 10.6218487,17 C10.5277311,17 10.4302521,16.9798319 10.3394958,16.9428571 C9.99327731,16.7915966 9.83529412,16.4016807 9.99327731,16.0689076 L12.2689076,11.1747899 C12.4235294,10.8352941 12.8302521,10.6840336 13.1798319,10.8352941 L13.1798319,10.8352941 Z" id="Codigo_2Regular"></path>
        </g>
    </g>
</svg>

<svg width="24" height="24" viewBox="0 0 24 24" xmlns="http://www.w3.org/2000/svg"><path d="M21.876 19.326a.267.267 0 00.272-.262V8.21H1.476v10.85a.27.27 0 00.272.263h20.128v.003zM1.75 4.45a.267.267 0 00-.272.262v2.077h20.672V4.711a.267.267 0 00-.272-.262H1.751zM21.876 3.03c.964 0 1.748.757 1.748 1.684v14.35c0 .928-.784 1.684-1.748 1.684H1.75C.787 20.748 0 19.992 0 19.064V4.714C0 3.787.783 3.03 1.751 3.03h20.125zM4.988 6.18a.67.67 0 01-.682-.659.67.67 0 01.682-.659.67.67 0 01.683.659.67.67 0 01-.683.659zm2.05 0a.67.67 0 01-.682-.659.67.67 0 01.683-.659.67.67 0 01.682.659c.003.363-.303.659-.682.659zm-4.104 0a.67.67 0 01-.682-.659c0-.366.303-.659.682-.659a.67.67 0 01.683.659c.003.363-.303.659-.683.659zm5.325 4.786a.647.647 0 01-.047.938l-2.249 1.967 2.255 2.006a.646.646 0 01.037.938.694.694 0 01-.504.212.69.69 0 01-.467-.178L4.477 14.35a.651.651 0 01-.222-.487.65.65 0 01.226-.488l2.806-2.453a.702.702 0 01.972.043zm7.973-.047l2.807 2.454a.655.655 0 01.225.488c0 .188-.08.363-.222.49l-2.807 2.498a.71.71 0 01-.971-.037.646.646 0 01.037-.938l2.255-2.007-2.248-1.966a.647.647 0 01-.047-.938.708.708 0 01.97-.044zm-3.052-.084a.653.653 0 01.346.878l-2.276 4.894a.693.693 0 01-.628.393.756.756 0 01-.283-.057c-.346-.151-.504-.541-.346-.874l2.276-4.894a.696.696 0 01.91-.34z" fill="#5CB615" fill-rule="nonzero"/></svg>
